svgs/thin/medal.svg

<svg xmlns="http://www.w3.org/2000/svg" viewBox="0 0 512 512"><!--! Font Awesome Pro 6.3.0 by @fontawesome - https://fontawesome.com License - https://fontawesome.com/license (Commercial License) Copyright 2023 Fonticons, Inc. --><path d="M256 160c-97.26 0-176 78.75-176 176S158.7 512 256 512s176-78.75 176-176S353.3 160 256 160zM256 496c-88.23 0-160-71.78-160-160S167.8 176 256 176s160 71.78 160 160S344.2 496 256 496zM509.2 12.8C505.1 4.836 496.1 0 487.1 0h-120.3c-8.344 0-16.25 4.453-20.6 11.66l-68.69 114.5c-2.25 3.781-1.031 8.703 2.75 10.97c3.813 2.281 8.719 1.047 11-2.75l68.66-114.5C362.3 17.45 364.9 16 367.7 16h120.3c3.031 0 5.688 1.609 7.094 4.312c1.406 2.688 1.188 5.797-.5626 8.281l-104.8 149.5c-2.531 3.625-1.656 8.609 1.969 11.14c5.327 3.729 10.09-.4341 11.16-1.953l104.8-149.5C512.8 30.42 513.4 20.77 509.2 12.8zM120.3 189.3c3.625-2.531 4.5-7.516 1.969-11.14L17.48 28.59C15.73 26.11 15.51 23 16.92 20.31C18.33 17.61 20.98 16 24.01 16h120.3c2.813 0 5.407 1.453 6.844 3.875l68.69 114.5C222.1 138.2 226.9 139.4 230.8 137.2C234.6 134.9 235.8 129.1 233.6 126.2L164.8 11.62C160.5 4.453 152.6 0 144.3 0H24.01c-8.969 0-17.06 4.836-21.22 12.8C-1.369 20.77-.8007 30.42 4.356 37.78l104.8 149.6C110.2 188.9 114.9 193 120.3 189.3zM342.1 297.6l-52.38-7.625L266.2 242.5c-2-4.25-6.125-6.375-10.25-6.375S247.7 238.3 245.7 242.5L222.2 290l-52.38 7.625C160.5 299 156.6 310.6 163.5 317.3l37.88 37L192.5 406.5c-1.283 7.309 4.61 13.37 11.27 13.37c1.77 0 3.594-.4258 5.35-1.371l46.88-24.62l46.88 24.62c1.758 .9453 3.581 1.371 5.35 1.371c6.665 0 12.56-6.062 11.27-13.37l-8.875-52.25l37.88-37C355.4 310.6 351.6 299 342.1 297.6zM293.4 348.6l8.803 51.45l-46.22-24.32L209.8 400.1l8.779-51.41l-37.38-36.45l51.66-7.576l23.13-46.82l23.13 46.82l51.66 7.576L293.4 348.6z"/></svg>

<svg xmlns="http://www.w3.org/2000/svg" viewBox="0 0 512 512"><!-- Font Awesome Pro 6.0.0-alpha2 by @fontawesome - https://fontawesome.com License - https://fontawesome.com/license (Commercial License) --><path d="M256 160C158.743 160 79.987 238.75 79.987 336S158.743 512 256 512S432.013 433.25 432.013 336S353.257 160 256 160ZM256 496C167.769 496 95.988 424.223 95.988 336S167.769 176 256 176S416.012 247.777 416.012 336S344.231 496 256 496ZM509.269 12.922C505.113 4.953 496.956 0 487.986 0H367.727C359.383 0 351.476 4.453 347.132 11.656L278.439 126.188C276.189 129.969 277.408 134.891 281.189 137.156C285.002 139.438 289.909 138.203 292.19 134.406L360.852 19.906C362.321 17.453 364.914 16 367.727 16H487.986C491.018 16 493.674 17.609 495.081 20.312C496.487 23 496.268 26.109 494.518 28.594L389.76 178.141C387.229 181.766 388.104 186.75 391.729 189.281C397.056 193.01 401.816 188.847 402.886 187.328L507.644 37.781C512.801 30.422 513.426 20.891 509.269 12.922ZM120.271 189.297C123.896 186.766 124.771 181.781 122.24 178.156L17.482 28.594C15.732 26.109 15.513 23 16.919 20.312C18.326 17.609 20.982 16 24.014 16H144.273C147.085 16 149.679 17.453 151.117 19.875L219.81 134.406C222.06 138.203 226.935 139.438 230.811 137.156C234.592 134.891 235.811 129.969 233.561 126.188L164.837 11.625C160.524 4.453 152.617 0 144.273 0H24.014C15.044 0 6.887 4.953 2.731 12.922S-0.801 30.422 4.356 37.781L109.114 187.344C110.184 188.863 114.944 193.026 120.271 189.297ZM342.122 297.625L289.743 290L266.241 242.5C264.241 238.25 260.116 236.125 255.99 236.125S247.74 238.25 245.739 242.5L222.238 290L169.859 297.625C160.483 299 156.608 310.625 163.483 317.25L201.361 354.25L192.485 406.5C191.202 413.809 197.099 419.871 203.764 419.871C205.533 419.871 207.356 419.445 209.112 418.5L255.99 393.875L302.869 418.5C304.627 419.445 306.447 419.871 308.217 419.871C314.881 419.871 320.78 413.809 319.495 406.5L310.619 354.25L348.497 317.25C355.373 310.625 351.622 299 342.122 297.625ZM293.44 348.664L302.171 400.059L255.99 375.801L209.811 400.059L218.54 348.664L181.158 312.148L232.856 304.621L255.988 257.859L279.127 304.621L330.822 312.148L293.44 348.664Z"/></svg>
